groups/nitrogen/iminocarbamate.svg

<?xml version='1.0' encoding='iso-8859-1'?>
<svg version='1.1' baseProfile='full'
              xmlns='http://www.w3.org/2000/svg'
                      xmlns:rdkit='http://www.rdkit.org/xml'
                      xmlns:xlink='http://www.w3.org/1999/xlink'
                  xml:space='preserve'
width='256px' height='256px' viewBox='0 0 256 256'>
<!-- END OF HEADER -->
<rect style='opacity:1.0;fill:#FFFFFF;stroke:none' width='256.0' height='256.0' x='0.0' y='0.0'> </rect>
<path class='bond-0 atom-0 atom-1' d='M 25.5,118.8 L 58.5,99.7' style='fill:none;fill-rule:evenodd;stroke:#000000;stroke-width:2.0px;stroke-linecap:butt;stroke-linejoin:miter;stroke-opacity:1' />
<path class='bond-1 atom-1 atom-2' d='M 80.1,99.7 L 113.1,118.7' style='fill:none;fill-rule:evenodd;stroke:#000000;stroke-width:2.0px;stroke-linecap:butt;stroke-linejoin:miter;stroke-opacity:1' />
<path class='bond-2 atom-2 atom-3' d='M 113.1,118.7 L 113.1,158.5' style='fill:none;fill-rule:evenodd;stroke:#000000;stroke-width:2.0px;stroke-linecap:butt;stroke-linejoin:miter;stroke-opacity:1' />
<path class='bond-2 atom-2 atom-3' d='M 120.7,118.7 L 120.7,158.5' style='fill:none;fill-rule:evenodd;stroke:#000000;stroke-width:2.0px;stroke-linecap:butt;stroke-linejoin:miter;stroke-opacity:1' />
<path class='bond-3 atom-3 atom-4' d='M 123.9,175.5 L 146.2,188.4' style='fill:none;fill-rule:evenodd;stroke:#000000;stroke-width:2.0px;stroke-linecap:butt;stroke-linejoin:miter;stroke-opacity:1' />
<path class='bond-4 atom-2 atom-5' d='M 113.1,118.7 L 146.1,99.6' style='fill:none;fill-rule:evenodd;stroke:#000000;stroke-width:2.0px;stroke-linecap:butt;stroke-linejoin:miter;stroke-opacity:1' />
<path class='bond-5 atom-5 atom-6' d='M 167.7,99.6 L 190.0,112.4' style='fill:none;fill-rule:evenodd;stroke:#000000;stroke-width:2.0px;stroke-linecap:butt;stroke-linejoin:miter;stroke-opacity:1' />
<path class='bond-6 atom-5 atom-7' d='M 156.9,82.6 L 156.9,59.6' style='fill:none;fill-rule:evenodd;stroke:#000000;stroke-width:2.0px;stroke-linecap:butt;stroke-linejoin:miter;stroke-opacity:1' />
<path class='atom-1' d='M38.1278,140.696 C39.7704,139.746 38.504,137.556 36.8614,138.505 C35.2187,139.455 33.9523,137.265 35.595,136.315 C37.2376,135.365 35.9713,133.175 34.3286,134.125 C32.6859,135.075 31.4195,132.884 33.0622,131.935 C34.7049,130.985 33.4385,128.795 31.7958,129.744 C30.1531,130.694 28.8868,128.504 30.5294,127.554 C32.1721,126.604 30.9057,124.414 29.263,125.364 C27.6204,126.314 26.354,124.123 27.9967,123.174 C29.6393,122.224 28.3729,120.034 26.7303,120.983 C25.0876,121.933 23.8212,119.743 25.4639,118.793 C27.1065,117.843 25.8402,115.653 24.1975,116.603 C22.5548,117.553 21.2884,115.362 22.9311,114.413 C24.5738,113.463 23.3074,111.273 21.6647,112.222 C20.022,113.172 18.7557,110.982 20.3983,110.032 C22.041,109.082 20.7746,106.892 19.1319,107.842 C17.4893,108.792 16.2229,106.601 17.8656,105.652 C19.5082,104.702 18.2418,102.512 16.5992,103.461 C14.9565,104.411 13.6901,102.221 15.3328,101.271 C16.9754,100.321 15.7091,98.1312 14.0664,99.0809 C12.4237,100.031 11.1573,97.8405 12.8,96.8907' style='fill:none;stroke:#7F7F7F;stroke-width:2.0px;stroke-linecap:butt;stroke-linejoin:miter;stroke-opacity:1' />
<text x='60.2' y='108.6' class='atom-1' style='font-size:30px;font-style:normal;font-weight:normal;fill-opacity:1;stroke:none;font-family:sans-serif;text-anchor:start;fill:#000000' >O</text>
<text x='104.0' y='184.5' class='atom-3' style='font-size:30px;font-style:normal;font-weight:normal;fill-opacity:1;stroke:none;font-family:sans-serif;text-anchor:start;fill:#000000' >N</text>
<text x='147.9' y='209.8' class='atom-4' style='font-size:30px;font-style:normal;font-weight:normal;fill-opacity:1;stroke:none;font-family:sans-serif;text-anchor:start;fill:#000000' >C</text>
<text x='168.8' y='209.8' class='atom-4' style='font-size:30px;font-style:normal;font-weight:normal;fill-opacity:1;stroke:none;font-family:sans-serif;text-anchor:start;fill:#000000' >H</text>
<text x='189.8' y='221.9' class='atom-4' style='font-size:20px;font-style:normal;font-weight:normal;fill-opacity:1;stroke:none;font-family:sans-serif;text-anchor:start;fill:#000000' >3</text>
<text x='147.8' y='108.6' class='atom-5' style='font-size:30px;font-style:normal;font-weight:normal;fill-opacity:1;stroke:none;font-family:sans-serif;text-anchor:start;fill:#000000' >N</text>
<text x='191.6' y='133.8' class='atom-6' style='font-size:30px;font-style:normal;font-weight:normal;fill-opacity:1;stroke:none;font-family:sans-serif;text-anchor:start;fill:#000000' >C</text>
<text x='212.6' y='133.8' class='atom-6' style='font-size:30px;font-style:normal;font-weight:normal;fill-opacity:1;stroke:none;font-family:sans-serif;text-anchor:start;fill:#000000' >H</text>
<text x='233.5' y='146.0' class='atom-6' style='font-size:20px;font-style:normal;font-weight:normal;fill-opacity:1;stroke:none;font-family:sans-serif;text-anchor:start;fill:#000000' >3</text>
<text x='147.8' y='58.0' class='atom-7' style='font-size:30px;font-style:normal;font-weight:normal;fill-opacity:1;stroke:none;font-family:sans-serif;text-anchor:start;fill:#000000' >C</text>
<text x='168.7' y='58.0' class='atom-7' style='font-size:30px;font-style:normal;font-weight:normal;fill-opacity:1;stroke:none;font-family:sans-serif;text-anchor:start;fill:#000000' >H</text>
<text x='189.7' y='70.1' class='atom-7' style='font-size:20px;font-style:normal;font-weight:normal;fill-opacity:1;stroke:none;font-family:sans-serif;text-anchor:start;fill:#000000' >3</text>
</svg>

<svg height="256" viewBox="0 0 256 256" width="256" xmlns="http://www.w3.org/2000/svg"><path d="m0 0h256v256h-256z" fill="#fff"/><path d="m25.5 118.8 33-19.1" fill="none" stroke="#000" stroke-width="2"/><path d="m80.1 99.7 33 19" fill="none" stroke="#000" stroke-width="2"/><path d="m113.1 118.7v39.8" fill="none" stroke="#000" stroke-width="2"/><path d="m120.7 118.7v39.8" fill="none" stroke="#000" stroke-width="2"/><path d="m123.9 175.5 22.3 12.9" fill="none" stroke="#000" stroke-width="2"/><path d="m113.1 118.7 33-19.1" fill="none" stroke="#000" stroke-width="2"/><path d="m167.7 99.6 22.3 12.8" fill="none" stroke="#000" stroke-width="2"/><path d="m156.9 82.6v-23" fill="none" stroke="#000" stroke-width="2"/><path d="m38.128 140.696c1.642-.95.376-3.14-1.267-2.191-1.642.95-2.909-1.24-1.266-2.19s.376-3.14-1.266-2.19c-1.643.95-2.909-1.241-1.267-2.19 1.643-.95.377-3.14-1.266-2.191-1.643.95-2.909-1.24-1.267-2.19 1.643-.95.377-3.14-1.266-2.19s-2.909-1.241-1.266-2.19c1.642-.95.376-3.14-1.267-2.191-1.642.95-2.909-1.24-1.266-2.19s.376-3.14-1.266-2.19c-1.643.95-2.91-1.241-1.267-2.19 1.643-.95.376-3.14-1.266-2.191-1.643.95-2.909-1.24-1.267-2.19 1.643-.95.377-3.14-1.266-2.19s-2.909-1.241-1.266-2.19c1.642-.95.376-3.14-1.267-2.191-1.642.95-2.909-1.24-1.266-2.19 1.642-.95.376-3.14-1.267-2.19-1.642.95-2.909-1.24-1.266-2.19" fill="none" stroke="#7f7f7f" stroke-width="2"/><g font-family="sans-serif"><text font-size="30" x="60.2" y="108.6">O</text><text font-size="30" x="104" y="184.5">N</text><text font-size="30" x="147.9" y="209.8">C</text><text font-size="30" x="168.8" y="209.8">H</text><text font-size="20" x="189.8" y="221.9">3</text><text font-size="30" x="147.8" y="108.6">N</text><text font-size="30" x="191.6" y="133.8">C</text><text font-size="30" x="212.6" y="133.8">H</text><text font-size="20" x="233.5" y="146">3</text><text font-size="30" x="147.8" y="58">C</text><text font-size="30" x="168.7" y="58">H</text><text font-size="20" x="189.7" y="70.1">3</text></g></svg>
